images/icon-next-arrow.svg

<svg height="14" viewBox="0 0 7 14" width="7" xmlns="http://www.w3.org/2000/svg" xmlns:xlink="http://www.w3.org/1999/xlink"><defs><path id="a" d="m507.453125 14.7998047c-.059245 0-.116373-.0105793-.171387-.0317383-.055013-.021159-.103678-.0528969-.145996-.0952148-.084636-.0846359-.126953-.1861974-.126953-.3046875 0-.1184902.042317-.2200517.126953-.3046875l5.801758-5.80175785-5.712891-5.70019531c-.084635-.08463584-.126953-.18831319-.126953-.31103516s.042318-.22639932.126953-.31103516c.084636-.08463583.188314-.12695312.311036-.12695312.122721 0 .226399.04231729.311035.12695312l6.004882 6.01757813c.084636.08463584.126954.18619732.126954.3046875s-.042318.22005166-.126954.3046875l-6.09375 6.10644535c-.042317.0423179-.090982.0740558-.145996.0952148-.055013.021159-.107909.0317383-.158691.0317383z"/></defs><g fill="none" fill-rule="evenodd" transform="translate(-507 -1)"><use fill="#535355" xlink:href="#a"/><use fill="#fff" xlink:href="#a"/></g></svg>

<?xml version="1.0" encoding="UTF-8"?>
<svg width="7px" height="14px" viewBox="0 0 7 14" version="1.1" xmlns="http://www.w3.org/2000/svg" xmlns:xlink="http://www.w3.org/1999/xlink">
    <!-- Generator: Sketch 50.2 (55047) - http://www.bohemiancoding.com/sketch -->
    <title>Arrow_Next_Icon</title>
    <desc>Created with Sketch.</desc>
    <defs>
        <path d="M507.453125,14.7998047 C507.39388,14.7998047 507.336752,14.7892254 507.281738,14.7680664 C507.226725,14.7469074 507.17806,14.7151695 507.135742,14.6728516 C507.051106,14.5882157 507.008789,14.4866542 507.008789,14.3681641 C507.008789,14.2496739 507.051106,14.1481124 507.135742,14.0634766 L512.9375,8.26171875 L507.224609,2.56152344 C507.139974,2.4768876 507.097656,2.37321025 507.097656,2.25048828 C507.097656,2.12776631 507.139974,2.02408896 507.224609,1.93945312 C507.309245,1.85481729 507.412923,1.8125 507.535645,1.8125 C507.658366,1.8125 507.762044,1.85481729 507.84668,1.93945312 L513.851562,7.95703125 C513.936198,8.04166709 513.978516,8.14322857 513.978516,8.26171875 C513.978516,8.38020893 513.936198,8.48177041 513.851562,8.56640625 L507.757812,14.6728516 C507.715495,14.7151695 507.66683,14.7469074 507.611816,14.7680664 C507.556803,14.7892254 507.503907,14.7998047 507.453125,14.7998047 Z" id="path-1"></path>
    </defs>
    <g id="Design" stroke="none" stroke-width="1" fill="none" fill-rule="evenodd">
        <g id="v.6" transform="translate(-1366.000000, -953.000000)">
            <g id="Hero-Content" transform="translate(809.000000, 0.000000)">
                <g id="slider-nav" transform="translate(50.000000, 952.000000)">
                    <g id="Arrow_Next_Icon">
                        <use fill="#535355" xlink:href="#path-1"></use>
                        <use fill="#FFFFFF" xlink:href="#path-1"></use>
                    </g>
                </g>
            </g>
        </g>
    </g>
</svg>
